src/standard/ceo-businessleader.svg

<svg xmlns="http://www.w3.org/2000/svg" viewBox="0 0 36 36">
  <path d="M31 9.38h-6.48l-.75-3.51a.62.62 0 0 0-.61-.49H12.84a.62.62 0 0 0-.61.49l-.75 3.51H5a.61.61 0 0 0-.62.62v20a.61.61 0 0 0 .62.62h26a.61.61 0 0 0 .62-.62V10a.61.61 0 0 0-.62-.62ZM13.35 6.62h9.3l.59 2.76H12.76Zm17 22.76H5.62V10.62h24.76Z"/>
  <path d="M28 8.62h2a.62.62 0 1 0 0-1.24h-2a.62.62 0 0 0 0 1.24Zm-22 0h2a.62.62 0 0 0 0-1.24H6a.62.62 0 1 0 0 1.24Z"/>
</svg>

<svg id="b05e5530-5b8c-4033-bfe4-7b7db80d67c9" data-name="Icon" xmlns="http://www.w3.org/2000/svg" viewBox="0 0 36 36">
  <title>Business leader icon - Black</title>
<desc>briefcase, executive, leader, business, leadership, finances, people and audiences, CEO, c-suite</desc>
<metadata><?xpacket begin="﻿" id="W5M0MpCehiHzreSzNTczkc9d"?>
<x:xmpmeta xmlns:x="adobe:ns:meta/" x:xmptk="Adobe XMP Core 8.0-c001 1.000000, 0000/00/00-00:00:00        ">
   <rdf:RDF xmlns:rdf="http://www.w3.org/1999/02/22-rdf-syntax-ns#">
      <rdf:Description rdf:about=""
            xmlns:xmp="http://ns.adobe.com/xap/1.0/"
            xmlns:dc="http://purl.org/dc/elements/1.1/"
            xmlns:cq="http://www.day.com/jcr/cq/1.0"
            xmlns:tiff="http://ns.adobe.com/tiff/1.0/">
         <xmp:rhcc-effective-on>2023-12-08T17:33:46.189Z</xmp:rhcc-effective-on>
         <xmp:rhcc-metadata-complete-moderator>pending</xmp:rhcc-metadata-complete-moderator>
         <xmp:rhcc-translation-id>TRA0350d27f-1d49-4748-b05b-c4782ed728ca</xmp:rhcc-translation-id>
         <xmp:brand-content-type>Icon</xmp:brand-content-type>
         <xmp:CreateDate>2023-12-08T17:33:46.189Z</xmp:CreateDate>
         <xmp:rhcc-effective-on-set-on-upload>true</xmp:rhcc-effective-on-set-on-upload>
         <xmp:rhcc-metadata-complete-uploader>pending</xmp:rhcc-metadata-complete-uploader>
         <xmp:rhcc-file-last-modified>2023-12-08T17:33:55.975Z</xmp:rhcc-file-last-modified>
         <xmp:rhcc-audience>rhcc-audience:internal</xmp:rhcc-audience>
         <xmp:rhcc-rights-restricted>no</xmp:rhcc-rights-restricted>
         <xmp:brand-content-subtype>Icon</xmp:brand-content-subtype>
         <xmp:rhcc-derivative-id>DER0350d27f-1d49-4748-b05b-c4782ed728ca</xmp:rhcc-derivative-id>
         <xmp:brand-logo-color>Black</xmp:brand-logo-color>
         <xmp:rhcc-notify-portal-subscribers-on-change>yes</xmp:rhcc-notify-portal-subscribers-on-change>
         <dc:format>image/svg+xml</dc:format>
         <dc:modified>2024-02-09T20:21:45.222Z</dc:modified>
         <dc:title>
            <rdf:Alt>
               <rdf:li xml:lang="x-default">Business leader icon - Black</rdf:li>
            </rdf:Alt>
         </dc:title>
         <dc:description>
            <rdf:Alt>
               <rdf:li xml:lang="x-default">briefcase, executive, leader, business, leadership, finances, people and audiences, CEO, c-suite</rdf:li>
            </rdf:Alt>
         </dc:description>
         <cq:lastReplicationAction_scene7>Activate</cq:lastReplicationAction_scene7>
         <cq:lastReplicationAction_publish>Activate</cq:lastReplicationAction_publish>
         <cq:lastReplicated_publish>2024-02-09T22:00:40.216Z</cq:lastReplicated_publish>
         <cq:lastReplicatedBy>workflow-process-service</cq:lastReplicatedBy>
         <cq:lastReplicationAction>Activate</cq:lastReplicationAction>
         <cq:lastReplicatedBy_publish>workflow-process-service</cq:lastReplicatedBy_publish>
         <cq:isDelivered>true</cq:isDelivered>
         <cq:lastReplicated>2024-02-09T22:00:40.216Z</cq:lastReplicated>
         <cq:lastReplicatedBy_scene7>workflow-process-service</cq:lastReplicatedBy_scene7>
         <cq:lastReplicated_scene7>2024-02-09T22:00:40.216Z</cq:lastReplicated_scene7>
         <tiff:ImageLength>36</tiff:ImageLength>
         <tiff:ImageWidth>36</tiff:ImageWidth>
      </rdf:Description>
   </rdf:RDF>
</x:xmpmeta>
                                                                                                    
                                                                                                    
                                                                                                    
                                                                                                    
                                                                                                    
                                                                                                    
                                                                                                    
                                                                                                    
                                                                                                    
                                                                                                    
                                 
<?xpacket end="w"?></metadata>
<g>
    <path d="M31,9.38H24.52l-.75-3.51a.62.62,0,0,0-.61-.49H12.84a.62.62,0,0,0-.61.49l-.75,3.51H5a.61.61,0,0,0-.62.62V30a.61.61,0,0,0,.62.62H31a.61.61,0,0,0,.62-.62V10A.61.61,0,0,0,31,9.38ZM13.35,6.62h9.3l.59,2.76H12.76Zm17,22.76H5.62V10.62H30.38Z"/>
    <path d="M28,8.62h2a.62.62,0,1,0,0-1.24H28a.62.62,0,0,0,0,1.24Z"/>
    <path d="M6,8.62H8A.62.62,0,0,0,8,7.38H6A.62.62,0,1,0,6,8.62Z"/>
  </g>
</svg>
